resources/svg/lifebuoy-line.svg

<svg fill="currentColor" viewBox="0 0 24 24" xmlns="http://www.w3.org/2000/svg"><path d="M12 2C17.5228 2 22 6.47715 22 12C22 17.5228 17.5228 22 12 22C6.47715 22 2 17.5228 2 12C2 6.47715 6.47715 2 12 2ZM12 17C11.355 17 10.7386 16.8779 10.1725 16.6555L7.93604 18.8923C9.12707 19.5961 10.5164 20 12 20C13.4836 20 14.8729 19.5961 16.064 18.8923L13.8275 16.6555C13.2614 16.8779 12.645 17 12 17ZM4 12C4 13.4836 4.40386 14.8729 5.10765 16.064L7.34451 13.8275C7.12213 13.2614 7 12.645 7 12C7 11.355 7.12213 10.7386 7.34451 10.1725L5.10765 7.93604C4.40386 9.12707 4 10.5164 4 12ZM18.8923 7.93604L16.6555 10.1725C16.8779 10.7386 17 11.355 17 12C17 12.645 16.8779 13.2614 16.6555 13.8275L18.8923 16.064C19.5961 14.8729 20 13.4836 20 12C20 10.5164 19.5961 9.12707 18.8923 7.93604ZM12 9C10.3431 9 9 10.3431 9 12C9 13.6569 10.3431 15 12 15C13.6569 15 15 13.6569 15 12C15 10.3431 13.6569 9 12 9ZM12 4C10.5164 4 9.12707 4.40386 7.93604 5.10765L10.1725 7.34451C10.7386 7.12213 11.355 7 12 7C12.645 7 13.2614 7.12213 13.8275 7.34451L16.064 5.10765C14.8729 4.40386 13.4836 4 12 4Z"/></svg>

<svg xmlns="http://www.w3.org/2000/svg" viewBox="0 0 24 24" fill="currentColor">
    <g>
        <path fill="none" d="M0 0h24v24H0z"/>
        <path d="M12 2c5.523 0 10 4.477 10 10s-4.477 10-10 10S2 17.523 2 12 6.477 2 12 2zm0 15a4.987 4.987 0 0 1-1.828-.345l-2.236 2.237A7.963 7.963 0 0 0 12 20a7.963 7.963 0 0 0 4.064-1.108l-2.236-2.237A4.987 4.987 0 0 1 12 17zm-8-5c0 1.484.404 2.873 1.108 4.064l2.237-2.236A4.987 4.987 0 0 1 7 12c0-.645.122-1.261.345-1.828L5.108 7.936A7.963 7.963 0 0 0 4 12zm14.892-4.064l-2.237 2.236c.223.567.345 1.183.345 1.828s-.122 1.261-.345 1.828l2.237 2.236A7.963 7.963 0 0 0 20 12a7.963 7.963 0 0 0-1.108-4.064zM12 9a3 3 0 1 0 0 6 3 3 0 0 0 0-6zm0-5a7.963 7.963 0 0 0-4.064 1.108l2.236 2.237A4.987 4.987 0 0 1 12 7c.645 0 1.261.122 1.828.345l2.236-2.237A7.963 7.963 0 0 0 12 4z"/>
    </g>
</svg>
